Catalina-light/actions/16/format-text-bold-symbolic.svg

<svg viewBox="0 0 16 16" xmlns="http://www.w3.org/2000/svg">
<defs>
<style id="current-color-scheme" type="text/css">.ColorScheme-Text {
        color:#bebebe;
      }</style>
</defs>
<path class="ColorScheme-Text" d="m4 3v2h1 4c0.42816 0 1 0.61414 1 1v1h-3-2c-0.91927 0-1.7356 0.38396-2.25 0.96875s-0.75639 1.3106-0.75 2.0312c6e-3 0.72062 0.26893 1.4527 0.78125 2.0312s1.3105 0.96875 2.2188 0.96875h7 1 0.15625 0.84375v-1-1-5c0-1.6343-1.3198-3-3-3h-2-4-1zm3 6h3v2h-3c-0.39787 0-0.56691-0.10979-0.71875-0.28125s-0.27877-0.43937-0.28125-0.71875c-2e-3 -0.27938 0.10467-0.55354 0.25-0.71875s0.32764-0.28125 0.75-0.28125z" fill="currentColor"/>
</svg>

<svg xmlns="http://www.w3.org/2000/svg" viewBox="0 0 16 16">
  <defs id="defs3051">
    <style type="text/css" id="current-color-scheme">
      .ColorScheme-Text {
        color:#bebebe;
      }
      </style>
  </defs>
 <path 
       style="fill:currentColor;fill-opacity:1;stroke:none"
	 class="ColorScheme-Text"
        d="M 4 3 L 4 5 L 5 5 L 9 5 C 9.42816 5 10 5.61414 10 6 L 10 7 L 7 7 L 5 7 C 4.08073 7 3.2644 7.38396 2.75 7.96875 C 2.2356 8.55354 1.99361 9.27938 2 10 C 2.006 10.72062 2.26893 11.45271 2.78125 12.03125 C 3.29357 12.60979 4.09172 13 5 13 L 12 13 L 13 13 L 13.15625 13 L 14 13 L 14 12 L 14 11 L 14 6 C 14 4.36566 12.6802 3 11 3 L 9 3 L 5 3 L 4 3 z M 7 9 L 10 9 L 10 11 L 7 11 C 6.60213 11 6.43309 10.89021 6.28125 10.71875 C 6.12941 10.54729 6.00248 10.27938 6 10 C 5.998 9.72062 6.10467 9.44646 6.25 9.28125 C 6.39533 9.11604 6.57764 9 7 9 z "
     />
</svg>
